media/ico/ico_speaker.svg

<svg width="96" height="96" viewBox="0 0 96 96" fill="none" xmlns="http://www.w3.org/2000/svg">
<path d="M48 12L24 36H8V60H24L48 84V12ZM56 12.3984V20.3984C68.75 22.2734 78.6904 32.5889 79.8828 45.4062C79.9623 46.2607 80 47.125 80 48C80 62 69.6 73.6016 56 75.6016V83.6016C74 81.6016 88 66.4 88 48C88 29.6 74 14.3984 56 12.3984ZM56 28.3984V36.7969C60.8 38.3969 64 42.8 64 48C64 53.2 60.8 57.6031 56 59.2031V67.6016C65.2 65.6016 72 57.6 72 48C72 38.4 65.2 30.3984 56 28.3984ZM40 31.3125V64.6875L27.3125 52H16V44H27.3125L40 31.3125Z" fill="#4F4AFF"/>
</svg>

<?xml version="1.0" encoding="utf-8"?>
<!-- Generator: Adobe Illustrator 28.0.0, SVG Export Plug-In . SVG Version: 6.00 Build 0)  -->
<svg version="1.1" id="Layer_1" xmlns="http://www.w3.org/2000/svg" xmlns:xlink="http://www.w3.org/1999/xlink" x="0px" y="0px"
	 viewBox="0 0 96 96" style="enable-background:new 0 0 96 96;" xml:space="preserve">
<style type="text/css">
	.st0{fill:#B3B3B3;}
</style>
<path class="st0" d="M48,12L24,36H8v24h16l24,24V12z M56,12.4v8c12.8,1.9,22.7,12.2,23.9,25C80,46.3,80,47.1,80,48
	c0,14-10.4,25.6-24,27.6v8c18-2,32-17.2,32-35.6S74,14.4,56,12.4z M56,28.4v8.4c4.8,1.6,8,6,8,11.2s-3.2,9.6-8,11.2v8.4
	c9.2-2,16-10,16-19.6S65.2,30.4,56,28.4z M40,31.3v33.4L27.3,52H16v-8h11.3L40,31.3z"/>
</svg>
